X:130
T:The Ballykett
R:reel
S:Dermot McLaughlin
Z:Transcription by Larry Sanger
M:4/4
Q:124
K:D
"first time"
d/d/d AG FDDF|GG=cG EFGB|d/d/d AG FD .E/.F/.G|Adce dgfe|
dcAG FDDF|GG=cG EFGB|dcAG FD E/F/G|Adce dfed||
cdef gfge|a{b}afa gfed|cdeg .f/.a/.f ec|[Ae]d{e}dc dfed|
cdef {a}g{f}gfg|abaf {a}gefg|.a/.a/.A gA fAec|Ad d/d/d dgfe||
"second time"
dcAG FDDF|GG=cG EFGB|ddAG FD E/F/G|Ad{e}dc defe|
dcAG FDDF|G/G/G BG EFGB|d/d/d AG FD E/F/G|Ad{e}dc dfed||
cdef g2fg|abaf {a}gfed|cdeg .f/.a/.f eg|fdec dfed|
cdef {a}g2fg|abaf gefg|a/a/a ga faec|Ad d/d/d defe||
"third time"
dcAG FDDF|G/G/G BG EFGB|ddAG FD .E/.F/.G|Ad{e}dc de{g}fe|
dcAG FDDF|E=ccE [dE]EcE|dBAG FD E/F/G|Ad{e}dc dfed||
cA A/A/A g{a}gfg|abaf {a}gfed|[ce]e[Ae]g faec|[Ae]d{e}dc dfed|
[ce]e[Ae]f {a}g2fg|abaf gefg|.a/.b/a g/a/g f2ec|Ad{e}dc dgfe||
"fourth time"
dcAG FDDF|G/G/G =cG EFGB|ddAG FD E/F/G|Ad{e}dc defe|
dcAG FDDF|G/G/G BG EFGB|dcAG FD E/F/G|Ad{e}dc dfed||
cdef ggfg|abaf gfed|cdeg f/f/f ec|Ad{e}dc dfed|
cA A/A/A gA A/A/g|abaf gefg|a/a/a ga faec|Ad d/d/d [dD]gfe||
"fifth time"
dcAG FDDF|GABG EFGB|dcAG FD .E/.F/.G|Ad{e}dc defe|
dcAG FDDF|G2=cG EFGB|d{e}dAG FD .E/.F/.G|Ad{e}dc dfed||
cA A/A/A g{a}gfg|abaf gfed|cdeg fdec|Ad{e}dc dfed|
cdef g{a}gfg|abaf gefg|a/a/a ga faec|Ad d/d/d [dD]gfe||
"sixth time"
dcAG FDDF|GG=cG EF[GG,]B|d{e}dAG FD .E/.F/.G|Adce dgfe|
dcAG FDDF|GE=cE [dE]EcE|dcAG [FA]ADF|Adce dgfe||
[ce]e[Ae]f g2fg|aaaf gfed|[ce]e[Ae]g faec|Ad d/d/d dgfe|
cdef gg f/f/g|abaf {a}g2fg|a/a/a gg f2ec|Ad{e}[dD][cD] [d4D4]||

